src/img/icons/car.svg

<svg width="14" height="14" viewBox="0 0 14 14" fill="none" xmlns="http://www.w3.org/2000/svg">
<path d="M0.875 6.5625H13.125" stroke="#002A31" stroke-width="0.875" stroke-linecap="round" stroke-linejoin="round"/>
<path d="M12.25 10.0625V11.375C12.25 11.491 12.2039 11.6023 12.1219 11.6844C12.0398 11.7664 11.9285 11.8125 11.8125 11.8125H10.5C10.384 11.8125 10.2727 11.7664 10.1906 11.6844C10.1086 11.6023 10.0625 11.491 10.0625 11.375V10.0625" stroke="#002A31" stroke-width="0.875" stroke-linecap="round" stroke-linejoin="round"/>
<path d="M3.9375 10.0625V11.375C3.9375 11.491 3.89141 11.6023 3.80936 11.6844C3.72731 11.7664 3.61603 11.8125 3.5 11.8125H2.1875C2.07147 11.8125 1.96019 11.7664 1.87814 11.6844C1.79609 11.6023 1.75 11.491 1.75 11.375V10.0625" stroke="#002A31" stroke-width="0.875" stroke-linecap="round" stroke-linejoin="round"/>
<path d="M3.5 8.3125H4.375" stroke="#002A31" stroke-width="0.875" stroke-linecap="round" stroke-linejoin="round"/>
<path d="M9.625 8.3125H10.5" stroke="#002A31" stroke-width="0.875" stroke-linecap="round" stroke-linejoin="round"/>
<path d="M12.25 6.5625L10.6148 2.8875C10.5809 2.80975 10.5251 2.74355 10.4542 2.69694C10.3834 2.65034 10.3005 2.62534 10.2156 2.625H3.78437C3.69955 2.62534 3.61665 2.65034 3.54577 2.69694C3.47489 2.74355 3.41909 2.80975 3.38516 2.8875L1.75 6.5625V10.0625H12.25V6.5625Z" stroke="#002A31" stroke-width="0.875" stroke-linecap="round" stroke-linejoin="round"/>
</svg>

<svg width="14" height="14" viewBox="0 0 14 14" fill="none" xmlns="http://www.w3.org/2000/svg"><path d="M.875 6.563h12.25M12.25 10.063v1.312a.438.438 0 0 1-.438.438H10.5a.438.438 0 0 1-.438-.438v-1.313M3.938 10.063v1.312a.438.438 0 0 1-.438.438H2.187a.438.438 0 0 1-.437-.438v-1.313M3.5 8.313h.875M9.625 8.313h.875" stroke="#002A31" stroke-width=".875" stroke-linecap="round" stroke-linejoin="round"/><path d="M12.25 6.563l-1.635-3.675a.437.437 0 0 0-.4-.263h-6.43a.438.438 0 0 0-.4.263L1.75 6.563v3.5h10.5v-3.5z" stroke="#002A31" stroke-width=".875" stroke-linecap="round" stroke-linejoin="round"/></svg>
